img/online-learning.svg

<svg width="38" height="38" viewBox="0 0 38 38" fill="none" xmlns="http://www.w3.org/2000/svg">
<path d="M35.3281 2.96875H2.67188C2.12091 2.96936 1.59268 3.1885 1.20309 3.57809C0.813499 3.96768 0.594359 4.49591 0.59375 5.04688V28.2031C0.594359 28.7541 0.813499 29.2823 1.20309 29.6719C1.59268 30.0615 2.12091 30.2806 2.67188 30.2812H14.5602L13.8477 32.0625H11.2812C11.1238 32.0625 10.9728 32.1251 10.8614 32.2364C10.7501 32.3478 10.6875 32.4988 10.6875 32.6562V34.4375C10.6875 34.595 10.7501 34.746 10.8614 34.8573C10.9728 34.9687 11.1238 35.0312 11.2812 35.0312H26.7188C26.8762 35.0312 27.0272 34.9687 27.1386 34.8573C27.2499 34.746 27.3125 34.595 27.3125 34.4375V32.6562C27.3125 32.4988 27.2499 32.3478 27.1386 32.2364C27.0272 32.1251 26.8762 32.0625 26.7188 32.0625H24.1523L23.4398 30.2812H35.3281C35.8791 30.2806 36.4073 30.0615 36.7969 29.6719C37.1865 29.2823 37.4056 28.7541 37.4062 28.2031V5.04688C37.4056 4.49591 37.1865 3.96768 36.7969 3.57809C36.4073 3.1885 35.8791 2.96936 35.3281 2.96875ZM26.125 33.25V33.8438H11.875V33.25H26.125ZM15.1273 32.0625L15.8398 30.2812H22.1602L22.8727 32.0625H15.1273ZM36.2188 28.2031C36.2186 28.4393 36.1247 28.6657 35.9577 28.8327C35.7907 28.9997 35.5643 29.0936 35.3281 29.0938H2.67188C2.43573 29.0936 2.20931 28.9997 2.04233 28.8327C1.87534 28.6657 1.78145 28.4393 1.78125 28.2031V27.3125H36.2188V28.2031ZM36.2188 26.125H1.78125V22.5625H36.2188V26.125ZM9.37754 11.8958C10.3379 11.8958 11.8223 11.7221 13.6562 10.9465V13.0625C13.6562 13.6924 13.406 14.2965 12.9606 14.7419C12.5152 15.1873 11.9111 15.4375 11.2812 15.4375C10.6514 15.4375 10.0473 15.1873 9.60187 14.7419C9.15647 14.2965 8.90625 13.6924 8.90625 13.0625V11.8809C9.04578 11.8898 9.20238 11.8958 9.37754 11.8958ZM8.90625 10.6905V10.6875C8.90696 10.0578 9.15741 9.45415 9.60265 9.0089C10.0479 8.56366 10.6516 8.31321 11.2812 8.3125C12.2201 8.3125 13.0521 8.90922 13.4343 9.74789C11.9618 10.404 10.7536 10.6214 9.96758 10.6845C9.61449 10.7139 9.25965 10.7159 8.90625 10.6905ZM11.875 16.5745V17.2188C11.875 17.3762 11.8124 17.5272 11.7011 17.6386C11.5897 17.7499 11.4387 17.8125 11.2812 17.8125C11.1238 17.8125 10.9728 17.7499 10.8614 17.6386C10.7501 17.5272 10.6875 17.3762 10.6875 17.2188V16.5745C11.0805 16.6418 11.482 16.6418 11.875 16.5745ZM11.2812 19C11.6494 18.9995 12.0084 18.8852 12.309 18.6726C12.6096 18.4599 12.837 18.1595 12.9601 17.8125H13.6562C14.2859 17.8132 14.8896 18.0637 15.3348 18.5089C15.7801 18.9541 16.0305 19.5578 16.0312 20.1875V21.375H14.8438V20.7812C14.8438 20.6238 14.7812 20.4728 14.6698 20.3614C14.5585 20.2501 14.4075 20.1875 14.25 20.1875C14.0925 20.1875 13.9415 20.2501 13.8302 20.3614C13.7188 20.4728 13.6562 20.6238 13.6562 20.7812V21.375H8.90625V20.7812C8.90625 20.6238 8.84369 20.4728 8.73234 20.3614C8.62099 20.2501 8.46997 20.1875 8.3125 20.1875C8.15503 20.1875 8.004 20.2501 7.89266 20.3614C7.78131 20.4728 7.71875 20.6238 7.71875 20.7812V21.375H6.53125V20.1875C6.53196 19.5578 6.78241 18.9541 7.22765 18.5089C7.6729 18.0637 8.27658 17.8132 8.90625 17.8125H9.60242C9.72546 18.1595 9.95288 18.4599 10.2535 18.6726C10.5541 18.8852 10.9131 18.9995 11.2812 19ZM36.2188 21.375H17.2188V20.1875C17.2177 19.243 16.8421 18.3374 16.1742 17.6695C15.5063 17.0017 14.6008 16.626 13.6562 16.625H13.0625V16.1455C13.6037 15.833 14.0532 15.3836 14.3658 14.8425C14.6785 14.3013 14.8433 13.6875 14.8438 13.0625V10.6875C14.8438 10.6704 14.843 10.6541 14.8415 10.637C14.8107 9.7285 14.4421 8.86414 13.8077 8.21305C13.4821 7.8701 13.0904 7.59683 12.6561 7.4098C12.2218 7.22278 11.7541 7.12588 11.2812 7.125C10.3367 7.126 9.43117 7.50166 8.76329 8.16954C8.09541 8.83742 7.71975 9.74297 7.71875 10.6875V13.0625C7.71922 13.6875 7.88405 14.3013 8.1967 14.8425C8.50934 15.3836 8.95881 15.833 9.5 16.1455V16.625H8.90625C7.96172 16.626 7.05617 17.0017 6.38829 17.6695C5.72041 18.3374 5.34475 19.243 5.34375 20.1875V21.375H1.78125V5.04688C1.78145 4.81073 1.87534 4.58431 2.04233 4.41733C2.20931 4.25034 2.43573 4.15645 2.67188 4.15625H35.3281C35.5643 4.15645 35.7907 4.25034 35.9577 4.41733C36.1247 4.58431 36.2186 4.81073 36.2188 5.04688V21.375Z" fill="white"/>
<path d="M17.8125 15.4375H19.5938V17.2188C19.5937 17.3362 19.6286 17.451 19.6938 17.5486C19.759 17.6463 19.8518 17.7224 19.9603 17.7673C20.0688 17.8123 20.1882 17.824 20.3033 17.8011C20.4185 17.7782 20.5243 17.7216 20.6074 17.6386L22.8084 15.4375H32.0625C32.22 15.4375 32.371 15.3749 32.4823 15.2636C32.5937 15.1522 32.6562 15.0012 32.6562 14.8438V5.34375C32.6562 5.18628 32.5937 5.03526 32.4823 4.92391C32.371 4.81256 32.22 4.75 32.0625 4.75H17.8125C17.655 4.75 17.504 4.81256 17.3927 4.92391C17.2813 5.03526 17.2188 5.18628 17.2188 5.34375V14.8438C17.2188 15.0012 17.2813 15.1522 17.3927 15.2636C17.504 15.3749 17.655 15.4375 17.8125 15.4375ZM18.4062 5.9375H31.4688V14.25H22.5625C22.4845 14.25 22.4073 14.2654 22.3353 14.2952C22.2632 14.325 22.1978 14.3688 22.1426 14.4239L20.7812 15.7853V14.8438C20.7812 14.6863 20.7187 14.5353 20.6073 14.4239C20.496 14.3126 20.345 14.25 20.1875 14.25H18.4062V5.9375Z" fill="white"/>
<path d="M27.3125 23.75H14.8438C14.8438 23.5925 14.7812 23.4415 14.6698 23.3302C14.5585 23.2188 14.4075 23.1562 14.25 23.1562C14.0925 23.1562 13.9415 23.2188 13.8302 23.3302C13.7188 23.4415 13.6562 23.5925 13.6562 23.75H10.6875C10.53 23.75 10.379 23.8126 10.2677 23.9239C10.1563 24.0353 10.0938 24.1863 10.0938 24.3438C10.0938 24.5012 10.1563 24.6522 10.2677 24.7636C10.379 24.8749 10.53 24.9375 10.6875 24.9375H13.6562C13.6562 25.095 13.7188 25.246 13.8302 25.3573C13.9415 25.4687 14.0925 25.5312 14.25 25.5312C14.4075 25.5312 14.5585 25.4687 14.6698 25.3573C14.7812 25.246 14.8438 25.095 14.8438 24.9375H27.3125C27.47 24.9375 27.621 24.8749 27.7323 24.7636C27.8437 24.6522 27.9062 24.5012 27.9062 24.3438C27.9062 24.1863 27.8437 24.0353 27.7323 23.9239C27.621 23.8126 27.47 23.75 27.3125 23.75Z" fill="white"/>
</svg>

<svg width="38" height="38" fill="none" xmlns="http://www.w3.org/2000/svg"><path d="M35.328 2.969H2.672A2.08 2.08 0 00.594 5.047v23.156a2.08 2.08 0 002.078 2.078H14.56l-.712 1.782H11.28a.594.594 0 00-.594.593v1.782a.594.594 0 00.594.593h15.44a.594.594 0 00.593-.593v-1.782a.594.594 0 00-.593-.593h-2.567l-.712-1.782h11.888a2.08 2.08 0 002.078-2.078V5.047a2.08 2.08 0 00-2.078-2.078zM26.125 33.25v.594h-14.25v-.594h14.25zm-10.998-1.188l.713-1.78h6.32l.713 1.78h-7.746zm21.092-3.859a.891.891 0 01-.89.89H2.671a.891.891 0 01-.89-.89v-.89h34.437v.89zm0-2.078H1.78v-3.563h34.44v3.563zM9.378 11.895c.96 0 2.444-.173 4.278-.948v2.116a2.375 2.375 0 11-4.75 0V11.88c.14.009.296.015.472.015zm-.472-1.204v-.004a2.378 2.378 0 012.375-2.374c.94 0 1.771.596 2.153 1.435-1.472.656-2.68.873-3.466.937-.354.029-.708.03-1.062.005zm2.969 5.883v.645a.594.594 0 01-1.188 0v-.645c.394.068.795.068 1.188 0zM11.281 19a1.784 1.784 0 001.68-1.188h.695a2.378 2.378 0 012.375 2.375v1.188h-1.187v-.594a.594.594 0 00-1.188 0v.594h-4.75v-.594a.594.594 0 00-1.187 0v.594H6.53v-1.188a2.378 2.378 0 012.375-2.375h.696A1.784 1.784 0 0011.282 19zm24.938 2.375h-19v-1.188a3.567 3.567 0 00-3.563-3.562h-.594v-.48a3.563 3.563 0 001.782-3.082v-2.376l-.002-.05a3.65 3.65 0 00-1.034-2.424 3.493 3.493 0 00-2.527-1.088 3.566 3.566 0 00-3.562 3.563v2.374A3.564 3.564 0 009.5 16.145v.48h-.594a3.567 3.567 0 00-3.562 3.563v1.187H1.78V5.047a.891.891 0 01.89-.89h32.657a.891.891 0 01.89.89v16.328z" fill="#fff"/><path d="M17.813 15.438h1.78v1.78a.593.593 0 001.014.42l2.201-2.2h9.255a.594.594 0 00.593-.594v-9.5a.594.594 0 00-.593-.594h-14.25a.594.594 0 00-.594.594v9.5a.594.594 0 00.593.594zm.593-9.5H31.47v8.312h-8.907a.594.594 0 00-.42.174l-1.36 1.361v-.941a.594.594 0 00-.595-.594h-1.78V5.937zm8.907 17.812h-12.47a.593.593 0 10-1.187 0h-2.969a.594.594 0 000 1.188h2.97a.593.593 0 101.187 0h12.469a.594.594 0 000-1.188z" fill="#fff"/></svg>
